public/main-frontend/img/forbes.svg

<svg width="152" height="58" viewBox="0 0 152 58" fill="none" xmlns="http://www.w3.org/2000/svg">
<g clip-path="url(#clip0_228_889)">
<mask id="mask0_228_889" style="mask-type:luminance" maskUnits="userSpaceOnUse" x="0" y="0" width="152" height="58">
<path d="M0 0H152V58H0V0Z" fill="white"/>
</mask>
<g mask="url(#mask0_228_889)">
<path d="M0 0.0136719H152V57.9867H0V0.0136719Z" fill="white"/>
<path d="M88.9707 20.4559C87.0597 20.4559 85.5577 20.8599 84.0557 21.6649C84.0557 17.3669 84.0557 13.4739 84.1937 12.1309L75.0437 13.7409V14.5479L75.9997 14.6819C77.2267 14.9499 77.6387 15.6209 77.9097 17.2329C78.1847 20.4559 78.0467 37.6449 77.9097 40.4659C80.3667 41.0029 82.9627 41.4059 85.5577 41.4059C92.7947 41.4059 97.1637 36.9749 97.1637 29.9909C97.1637 24.4859 93.6137 20.4559 88.9707 20.4559ZM85.8307 39.9289C85.2837 39.9289 84.6007 39.9289 84.1907 39.7949C84.0547 37.9149 83.9187 29.9909 84.0547 23.0079C84.8737 22.7389 85.4197 22.6049 86.1027 22.6049C89.1087 22.6049 90.7477 26.0959 90.7477 30.3929C90.7477 35.7659 88.6977 39.9279 85.8297 39.9279L85.8307 39.9289ZM40.6307 12.6679H16.5967V13.8759L17.9627 14.0099C19.7377 14.2779 20.4207 15.3529 20.6927 17.9039C21.1037 22.7389 20.9667 31.4679 20.6927 35.6299C20.4197 38.1819 19.7377 39.3909 17.9627 39.5239L16.5967 39.7939V40.8679H32.0277V39.7929L30.3887 39.5229C28.6137 39.3899 27.9317 38.1819 27.6587 35.6299C27.5207 33.8829 27.3847 31.0629 27.3847 27.5719L30.6617 27.7059C32.7107 27.7059 33.6657 29.3179 34.0757 31.5999H35.3057V22.0679H34.0757C33.6657 24.3519 32.7107 25.9619 30.6617 25.9619L27.3857 26.0969C27.3857 21.5309 27.5217 17.2339 27.6587 14.6829H32.4387C36.1257 14.6829 38.0377 16.9649 39.4027 20.9939L40.7677 20.5909L40.6307 12.6679Z" fill="black"/>
<path d="M48.4147 20.1879C55.2427 20.1879 58.6567 24.7539 58.6567 30.7969C58.6567 36.5709 54.8327 41.4069 48.0047 41.4069C41.1777 41.4069 37.7637 36.8399 37.7637 30.7969C37.7637 25.0219 41.5867 20.1879 48.4147 20.1879ZM48.0047 21.5309C45.0007 21.5309 44.1807 25.5599 44.1807 30.7969C44.1807 35.8999 45.5467 40.0629 48.2787 40.0629C51.4167 40.0629 52.2377 36.0329 52.2377 30.7969C52.2377 25.6939 50.8737 21.5309 48.0047 21.5309ZM98.9387 30.9309C98.9387 25.4259 102.489 20.1879 109.453 20.1879C115.187 20.1879 117.919 24.3519 117.919 29.8569H105.22C105.082 34.8259 107.54 38.4519 112.457 38.4519C114.642 38.4519 115.734 37.9159 117.101 36.9749L117.646 37.6459C116.28 39.5259 113.276 41.4069 109.453 41.4069C103.308 41.4069 98.9387 37.1089 98.9387 30.9309ZM105.22 28.3809L111.638 28.2449C111.638 25.5599 111.228 21.5309 108.907 21.5309C106.586 21.5309 105.355 25.2909 105.22 28.3809ZM134.172 21.2629C132.533 20.5899 130.349 20.1879 127.891 20.1879C122.839 20.1879 119.697 23.1419 119.697 26.6339C119.697 30.1259 122.016 31.6029 125.297 32.6769C128.71 33.8849 129.666 34.8259 129.666 36.4369C129.666 38.0489 128.437 39.5249 126.252 39.5249C123.658 39.5249 121.745 38.0489 120.244 34.0189L119.287 34.2889L119.425 40.1969C121.063 40.8679 124.067 41.4069 126.662 41.4069C131.988 41.4069 135.402 38.7189 135.402 34.5569C135.402 31.7369 133.899 30.1259 130.349 28.7819C126.525 27.3049 125.161 26.3659 125.161 24.6189C125.161 22.8739 126.392 21.6649 128.03 21.6649C130.487 21.6649 132.125 23.1419 133.356 26.7679L134.311 26.4999L134.172 21.2629ZM76.4077 20.7249C74.0877 19.3839 69.9897 20.0539 67.8057 24.8889L67.9407 20.1889L58.7927 21.9339V22.7399L59.7487 22.8739C60.9787 23.0089 61.5237 23.6799 61.6607 25.4269C61.9337 28.6499 61.7977 34.2909 61.6607 37.1099C61.5237 38.7199 60.9787 39.5259 59.7487 39.6599L58.7927 39.7959V40.8699H71.4927V39.7959L69.8527 39.6609C68.4887 39.5259 68.0787 38.7209 67.9407 37.1109C67.6677 34.5579 67.6677 29.4549 67.8057 26.2319C68.4877 25.2919 71.4917 24.4869 74.2227 26.2319L76.4077 20.7249Z" fill="black"/>
</g>
</g>
<defs>
<clipPath id="clip0_228_889">
<rect width="152" height="58" fill="white"/>
</clipPath>
</defs>
</svg>

<svg xmlns="http://www.w3.org/2000/svg" width="152" height="58" fill="none"><g clip-path="url(#a)"><path fill="#1B202F" d="M0 .014h152v57.973H0V.014Z"/><path fill="#fff" d="M88.971 20.456c-1.911 0-3.413.404-4.915 1.209 0-4.298 0-8.191.138-9.534l-9.15 1.61v.807l.956.134c1.227.268 1.639.939 1.91 2.551.275 3.223.137 20.412 0 23.233 2.457.537 5.053.94 7.648.94 7.237 0 11.606-4.431 11.606-11.415 0-5.505-3.55-9.535-8.193-9.535Zm-3.14 19.473c-.547 0-1.23 0-1.64-.134-.136-1.88-.272-9.804-.136-16.787.819-.269 1.365-.403 2.048-.403 3.006 0 4.645 3.491 4.645 7.788 0 5.373-2.05 9.535-4.918 9.535Zm-45.2-27.261H16.597v1.208l1.366.134c1.775.268 2.458 1.343 2.73 3.894.411 4.835.274 13.564 0 17.726-.273 2.552-.955 3.761-2.73 3.894l-1.366.27v1.074h15.431v-1.075l-1.639-.27c-1.775-.133-2.457-1.341-2.73-3.893-.138-1.747-.274-4.567-.274-8.058l3.277.134c2.049 0 3.004 1.612 3.414 3.894h1.23v-9.532h-1.23c-.41 2.284-1.365 3.894-3.414 3.894l-3.276.135c0-4.566.136-8.863.273-11.414h4.78c3.687 0 5.599 2.282 6.964 6.311l1.365-.403-.137-7.923Z"/><path fill="#fff" d="M48.415 20.188c6.828 0 10.242 4.566 10.242 10.609 0 5.774-3.824 10.61-10.652 10.61-6.827 0-10.241-4.567-10.241-10.61 0-5.775 3.823-10.61 10.651-10.61Zm-.41 1.343c-3.004 0-3.824 4.029-3.824 9.266 0 5.103 1.366 9.266 4.098 9.266 3.138 0 3.959-4.03 3.959-9.266 0-5.103-1.364-9.266-4.233-9.266Zm50.934 9.4c0-5.505 3.55-10.743 10.514-10.743 5.734 0 8.466 4.164 8.466 9.669H105.22c-.138 4.969 2.32 8.595 7.237 8.595 2.185 0 3.277-.536 4.644-1.477l.545.671c-1.366 1.88-4.37 3.761-8.193 3.761-6.145 0-10.514-4.297-10.514-10.475Zm6.281-2.55 6.418-.136c0-2.685-.41-6.714-2.731-6.714-2.321 0-3.552 3.76-3.687 6.85Zm28.952-7.118c-1.639-.673-3.823-1.075-6.281-1.075-5.052 0-8.194 2.954-8.194 6.446 0 3.492 2.319 4.969 5.6 6.043 3.413 1.208 4.369 2.149 4.369 3.76 0 1.612-1.229 3.088-3.414 3.088-2.594 0-4.507-1.476-6.008-5.506l-.957.27.138 5.908c1.638.671 4.642 1.21 7.237 1.21 5.326 0 8.74-2.688 8.74-6.85 0-2.82-1.503-4.431-5.053-5.775-3.824-1.477-5.188-2.416-5.188-4.163 0-1.745 1.231-2.954 2.869-2.954 2.457 0 4.095 1.477 5.326 5.103l.955-.268-.139-5.237Zm-57.764-.538c-2.32-1.341-6.418-.671-8.602 4.164l.135-4.7-9.148 1.745v.806l.956.134c1.23.135 1.775.806 1.912 2.553.273 3.223.137 8.864 0 11.683-.137 1.61-.682 2.416-1.912 2.55l-.956.136v1.074h12.7v-1.074l-1.64-.135c-1.364-.135-1.774-.94-1.912-2.55-.273-2.553-.273-7.656-.135-10.879.682-.94 3.686-1.745 6.417 0l2.185-5.507Z"/></g><defs><clipPath id="a"><path fill="#fff" d="M0 0h152v58H0z"/></clipPath></defs></svg>
